X: 3750
T: Bird's, The
R: hornpipe
M: 4/4
K: Adorian
|:e>d|c>AA>^G A>Bc>A|G>ED>E G2 e>d|c>AA>^G A2 (3Bcd|(3efg f>a g>e (3fed|
c>A-A>^G A2 B>A|G>ED>E G2- G>A|B2 B>A A>G (3EFG|A2 (3BAG A2:|
|:(3cde|g2 g>e g>ec>e|g2 g>e g2 d/e/f/g/|a2 a>^g a>=g (3efg|a2- a>b a2- a2|
g2 (3gfe d2- d2|c>de<g a2- a>g|e>ge>d c>A (3BA^G|A2- A2 A2:|

